X: 26805
T: Miller's Maid, The
R: reel
M: 4/4
K: Dmajor
|:B|A/B/A FA BcdB|A2 FA BEEB|A/B/A FA BABc|d/c/B A/G/F AD D:|
c|dAFA dfaf|g/f/e fd Beec|dAFA BABc|d/c/B AF ADDc|
dAFA dfaf|g/f/e fd Beef|dfaf gfgb|a/g/f g/f/e fd d2||

